img/user.svg

<svg xmlns="http://www.w3.org/2000/svg" width="24" height="24"><path d="M12 2A10 10 0 002 12a10 10 0 0010 10 10 10 0 0010-10A10 10 0 0012 2M7.07 18.28c.43-.9 3.05-1.78 4.93-1.78s4.5.88 4.93 1.78A7.893 7.893 0 0112 20c-1.86 0-3.57-.64-4.93-1.72m11.29-1.45c-1.43-1.74-4.9-2.33-6.36-2.33s-4.93.59-6.36 2.33A7.928 7.928 0 014 12c0-4.41 3.59-8 8-8s8 3.59 8 8c0 1.82-.62 3.5-1.64 4.83M12 6c-1.94 0-3.5 1.56-3.5 3.5S10.06 13 12 13s3.5-1.56 3.5-3.5S13.94 6 12 6m0 5a1.5 1.5 0 01-1.5-1.5A1.5 1.5 0 0112 8a1.5 1.5 0 011.5 1.5A1.5 1.5 0 0112 11z"/></svg>

<?xml version="1.0" encoding="UTF-8"?><!DOCTYPE svg PUBLIC "-//W3C//DTD SVG 1.1//EN" "http://www.w3.org/Graphics/SVG/1.1/DTD/svg11.dtd"><svg xmlns="http://www.w3.org/2000/svg" xmlns:xlink="http://www.w3.org/1999/xlink" version="1.1" width="24" height="24" viewBox="0 0 24 24"><path d="M12,2A10,10 0 0,0 2,12A10,10 0 0,0 12,22A10,10 0 0,0 22,12A10,10 0 0,0 12,2M7.07,18.28C7.5,17.38 10.12,16.5 12,16.5C13.88,16.5 16.5,17.38 16.93,18.28C15.57,19.36 13.86,20 12,20C10.14,20 8.43,19.36 7.07,18.28M18.36,16.83C16.93,15.09 13.46,14.5 12,14.5C10.54,14.5 7.07,15.09 5.64,16.83C4.62,15.5 4,13.82 4,12C4,7.59 7.59,4 12,4C16.41,4 20,7.59 20,12C20,13.82 19.38,15.5 18.36,16.83M12,6C10.06,6 8.5,7.56 8.5,9.5C8.5,11.44 10.06,13 12,13C13.94,13 15.5,11.44 15.5,9.5C15.5,7.56 13.94,6 12,6M12,11A1.5,1.5 0 0,1 10.5,9.5A1.5,1.5 0 0,1 12,8A1.5,1.5 0 0,1 13.5,9.5A1.5,1.5 0 0,1 12,11Z" /></svg>
